assets/svg/icon_field_search.svg

<svg width="24" height="24" viewBox="0 0 24 24" fill="none" xmlns="http://www.w3.org/2000/svg">
<path d="M19.9 18.924L17.4119 16.1588C17.2761 16.0078 17.0903 15.9198 16.8903 15.9126C16.692 15.9054 16.4991 15.9773 16.3526 16.1174L16.3169 16.1516C16.0151 16.4391 15.9972 16.926 16.2758 17.2368L18.764 20.002C18.8998 20.153 19.0855 20.241 19.2856 20.2482H19.3142C19.5035 20.2482 19.6839 20.1763 19.8232 20.0434L19.859 20.0092C20.0054 19.8691 20.0894 19.6804 20.0983 19.4756C20.1055 19.2708 20.0358 19.0749 19.9 18.924Z" fill="#9A9A9A"/>
<circle cx="11" cy="10" r="6.3" stroke="#9A9A9A" stroke-width="1.4"/>
</svg>

<svg xmlns="http://www.w3.org/2000/svg" width="24" height="24" fill="none"><path fill="#9A9A9A" d="m19.9 18.924-2.488-2.765a.734.734 0 0 0-1.06-.042l-.035.035a.786.786 0 0 0-.041 1.085l2.488 2.765a.73.73 0 0 0 .522.246h.028c.19 0 .37-.072.51-.205l.035-.034a.78.78 0 0 0 .041-1.085"/><circle cx="11" cy="10" r="6.3" stroke="#9A9A9A" stroke-width="1.4"/></svg>
